src/assets/icons/menu-buger.svg

<svg width="24" height="24" viewBox="0 0 24 24" xmlns="http://www.w3.org/2000/svg">
<g id="buger_icon">
<g id="Vector">
<path fill-rule="evenodd" clip-rule="evenodd" d="M0 11C0 10.4477 0.447715 10 1 10H23C23.5523 10 24 10.4477 24 11C24 11.5523 23.5523 12 23 12H1C0.447715 12 0 11.5523 0 11Z"/>
<path fill-rule="evenodd" clip-rule="evenodd" d="M0 19C0 18.4477 0.447715 18 1 18H23C23.5523 18 24 18.4477 24 19C24 19.5523 23.5523 20 23 20H1C0.447715 20 0 19.5523 0 19Z"/>
<path fill-rule="evenodd" clip-rule="evenodd" d="M0 3C0 2.44772 0.447715 2 1 2H23C23.5523 2 24 2.44772 24 3C24 3.55228 23.5523 4 23 4H1C0.447715 4 0 3.55228 0 3Z"/>
</g>
</g>
</svg>

<svg xmlns="http://www.w3.org/2000/svg" width="24" height="24"><g fill-rule="evenodd" clip-rule="evenodd"><path d="M0 11a1 1 0 0 1 1-1h22a1 1 0 1 1 0 2H1a1 1 0 0 1-1-1ZM0 19a1 1 0 0 1 1-1h22a1 1 0 1 1 0 2H1a1 1 0 0 1-1-1ZM0 3a1 1 0 0 1 1-1h22a1 1 0 1 1 0 2H1a1 1 0 0 1-1-1Z"/></g></svg>
